dist/images/misc/hd-border-x.svg

<svg fill="none" height="4" viewBox="0 0 763 4" width="763" xmlns="http://www.w3.org/2000/svg"><path clip-rule="evenodd" d="m762.66 2.12598c-1.352-.03256-3.26-.36769-4.516-.35737-2.641.02144-5.286-.28256-7.929-.27939-8.976.0143-17.948.01034-26.921-.00395-10.354-.01668-20.707-.02622-31.06-.08975-5.752-.03494-11.5-.19456-17.252-.25651-4.946-.05321-9.896-.03096-14.842-.07385-5.752-.05003-11.5-.138976-17.249-.202508-5.852-.064325-11.697-.1215-17.553-.115941-11.727.012706-23.447-.250953-35.179-.00318-4.248.088944-8.525-.090529-12.768.023033-6.563.175506-13.108.119114-19.667.031758-3.441-.045266-6.896.06989-10.341.124686-3.332.053208-6.664.155652-9.996.174712-3.104.01667-6.212-.08258-9.316-.06749-5.405.0262-10.812.15007-16.218.14054-7.36-.01271-14.723-.09847-22.082-.178682-4.485-.049237-8.969-.231079-13.45-.201696-7.704.050825-15.41.219968-23.111.343848-.575.00874-1.147.04607-1.721.06513-9.759.3256-19.524.43041-29.304.24856-1.032-.01906-2.071 0-3.103.02621-3.784.09609-7.565.20886-11.352.30178-2.984.07306-5.969.17233-8.956.17947-5.025.01192-24.845-.46934-27.488-.46617-8.975.0143-17.948.01034-26.92-.00395-10.355-.01668-20.707-.02622-31.06-.08975-5.752-.03494-11.5-.19456-17.252-.25651-4.945-.05321-9.896-.03096-14.841-.07385-5.752-.05003-11.501-.138976-17.25-.202508-5.852-.064325-11.697-.1215-17.555-.115941-11.726.012706-23.446-.250953-35.177-.00318-4.249.088944-8.527-.090529-12.768.023033-6.564.175506-13.108.119114-19.667.031758-3.441-.045266-6.896.06989-10.341.124686-3.333.053208-6.665.155652-9.997.174712-3.104.01667-6.21-.08258-9.314-.06749-5.408.0262-10.813.15007-16.22.14054-7.361-.01271-14.721-.09847-22.081-.178682-4.485-.049237-8.969-.231079-13.4505-.201696-7.7053.050825-15.4093.219968-23.1107.343848-.5746.00874-1.1466.04607-1.7213.06513-9.7573.3256-19.5253.43041-29.3039.24856-1.032-.01906-2.0707 0-3.1041.02621-3.7826.09609-7.564.20886-11.3493.30178-2.9853.07306-5.9707.17233-8.9587.17947-6.0973.0143-12.19465-.0262-18.29465-.03811-.550666-.00159-.698386.17217-1.4850527.2087-.1033305.5956-.06470648.53907-.0106143 1.48902.870667.06511 2.160997-.06814 2.946337-.05067 1.60666.03812 3.216.04605 4.824.04763 2.64268.0008 5.30528.07624 7.92528-.03891 5.0467-.22156 10.0881-.33035 15.1534-.24458 1.952.03415 3.9067.06987 5.8574.04684 4.2453-.05082 8.488-.13579 12.728-.21282 2.2826-.04209 4.584.00317 6.8426-.06354 6.6414-.19615 13.256-.58766 19.928-.58845 2.1853 0 4.3706.01111 6.5546.01429 3.6654.00556 7.3413-.17948 10.9933.13977.5507.04923 1.716 0 1.716 0s5.9649-.07862 8.9479-.08021c6.433-.00318 12.855-.14136 19.272-.33831 1.029-.03256 2.064-.09846 3.093-.08973 9.663.08339 19.324.17789 28.986.27159 3.218.03018 6.437.05798 9.653.10245 4.145.05639 8.265-.14611 12.395-.20964 6.893-.10721 13.793-.09452 20.69-.1104 2.746-.00715 5.522-.14851 8.198.3113.514.08815 1.144.08021 1.71.06035 2.971-.10562 5.978.16282 8.928-.18502.543-.06432 1.143-.03099 1.716-.03575 4.474-.0413 8.944-.09212 13.415-.11753 3.216-.01827 6.433-.01112 9.651 0 3.334.01112 6.669.0699 10.002.05401 3.219-.01509 6.436-.08497 9.65-.15565 3.568-.07703 7.121.0802 10.675.08735 6.901.01112 13.788.13659 20.678.25968 1.606.0278 3.204.14216 4.81.16599 3.21.04685 6.425.06034 9.637.08496 1.952.01429 3.908-.00238 5.857.04129 2.866.06512 5.723.20967 8.588.25335 5.278.08339 10.562.17392 15.843.15803 5.976-.01826 11.967-.05401 17.92-.26843 3.687-.13262 7.343-.02621 11.011-.06433 4.098-.04367 37.918.38279 42.984.46856 1.95.03415 3.905.06987 5.856.04684 4.245-.05082 8.486-.13579 12.728-.21282 2.282-.04209 4.585.00317 6.842-.06354 6.641-.19615 13.256-.58766 19.93-.58845 2.183 0 4.369.01111 6.553.01429 3.665.00556 7.341-.17948 10.993.13977.551.04923 1.144.00556 1.715 0 2.984-.027 5.967-.07862 8.949-.08021 6.435-.00318 12.855-.14136 19.272-.33831 1.031-.03256 2.063-.09846 3.093-.08973 9.664.08339 19.325.17789 28.986.27159 3.22.03018 6.437.05798 9.653.10245 4.147.05639 8.267-.14611 12.395-.20964 6.892-.10721 13.794-.09452 20.69-.1104 2.746-.00715 5.522-.14851 8.198.3113.514.08815 1.145.08021 1.71.06035 2.972-.10562 5.978.16282 8.93-.18502.541-.06432 1.14-.03099 1.716-.03575 4.472-.0413 8.941-.09212 13.413-.11753 3.216-.01827 6.433-.01112 9.652 0 3.333.01112 6.669.0699 10.004.05401 3.216-.01509 6.433-.08497 9.648-.15565 3.567-.07703 7.12.0802 10.673.08735 6.903.01112 13.788.13659 20.679.25968 1.607.0278 3.204.14216 4.811.16599 3.209.04685 6.422.06034 9.636.08496 1.952.01429 3.908-.00238 5.857.04129 2.867.06512 5.723.20967 8.589.25335 5.279.08339 10.562.17392 15.842.15803 5.977-.01826 11.966-.05401 17.92-.26843 3.686-.13262 7.344-.02621 11.012-.06433 4.361-.04685 4.357.4144 8.722.39772 1.469-.00556 6.66.35737 8.16.35737-.034-1.4899 0 0 0-1.14469" fill="#495057" fill-rule="evenodd"/></svg>

<svg width="763" height="4" viewBox="0 0 763 4" fill="none" xmlns="http://www.w3.org/2000/svg">
<path fill-rule="evenodd" clip-rule="evenodd" d="M762.66 2.12598C761.308 2.09342 759.4 1.75829 758.144 1.76861C755.503 1.79005 752.858 1.48605 750.215 1.48922C741.239 1.50352 732.267 1.49956 723.294 1.48527C712.94 1.46859 702.587 1.45905 692.234 1.39552C686.482 1.36058 680.734 1.20096 674.982 1.13901C670.036 1.0858 665.086 1.10805 660.14 1.06516C654.388 1.01513 648.64 0.926184 642.891 0.862652C637.039 0.798327 631.194 0.741152 625.338 0.746711C613.611 0.759417 601.891 0.495758 590.159 0.743531C585.911 0.832475 581.634 0.653002 577.391 0.766564C570.828 0.94207 564.283 0.885678 557.724 0.798322C554.283 0.753056 550.828 0.868212 547.383 0.923008C544.051 0.976216 540.719 1.07866 537.387 1.09772C534.283 1.11439 531.175 1.01514 528.071 1.03023C522.666 1.05643 517.259 1.1803 511.853 1.17077C504.493 1.15806 497.13 1.0723 489.771 0.992088C485.286 0.942851 480.802 0.761009 476.321 0.790392C468.617 0.841217 460.911 1.01036 453.21 1.13424C452.635 1.14298 452.063 1.18031 451.489 1.19937C441.73 1.52497 431.965 1.62978 422.185 1.44793C421.153 1.42887 420.114 1.44793 419.082 1.47414C415.298 1.57023 411.517 1.683 407.73 1.77592C404.746 1.84898 401.761 1.94825 398.774 1.95539C393.749 1.96731 373.929 1.48605 371.286 1.48922C362.311 1.50352 353.338 1.49956 344.366 1.48527C334.011 1.46859 323.659 1.45905 313.306 1.39552C307.554 1.36058 301.806 1.20096 296.054 1.13901C291.109 1.0858 286.158 1.10805 281.213 1.06516C275.461 1.01513 269.712 0.926184 263.963 0.862652C258.111 0.798327 252.266 0.741152 246.408 0.746711C234.682 0.759417 222.962 0.495758 211.231 0.743531C206.982 0.832475 202.704 0.653002 198.463 0.766564C191.899 0.94207 185.355 0.885678 178.796 0.798322C175.355 0.753056 171.9 0.868212 168.455 0.923008C165.122 0.976216 161.79 1.07866 158.458 1.09772C155.354 1.11439 152.248 1.01514 149.144 1.03023C143.736 1.05643 138.331 1.1803 132.924 1.17077C125.563 1.15806 118.203 1.0723 110.843 0.992088C106.358 0.942851 101.874 0.761009 97.3925 0.790392C89.6872 0.841217 81.9832 1.01036 74.2818 1.13424C73.7072 1.14298 73.1352 1.18031 72.5605 1.19937C62.8032 1.52497 53.0352 1.62978 43.2566 1.44793C42.2246 1.42887 41.1859 1.44793 40.1525 1.47414C36.3699 1.57023 32.5885 1.683 28.8032 1.77592C25.8179 1.84898 22.8325 1.94825 19.8445 1.95539C13.7472 1.96969 7.64985 1.92919 1.54985 1.91728C0.999184 1.91569 0.851464 2.08945 0.0647973 2.12598C-0.0385332 2.72158 9.08176e-05 2.66505 0.054183 3.615C0.92485 3.68011 2.21518 3.54686 3.00052 3.56433C4.60718 3.60245 6.21652 3.61038 7.82452 3.61196C10.4672 3.61276 13.1298 3.6882 15.7498 3.57305C20.7965 3.35149 25.8379 3.2427 30.9032 3.32847C32.8552 3.36262 34.8099 3.39834 36.7606 3.37531C41.0059 3.32449 45.2486 3.23952 49.4886 3.16249C51.7712 3.1204 54.0726 3.16566 56.3312 3.09895C62.9726 2.9028 69.5872 2.51129 76.2592 2.5105C78.4445 2.5105 80.6298 2.52161 82.8138 2.52479C86.4792 2.53035 90.1551 2.34531 93.8071 2.66456C94.3578 2.71379 95.5231 2.66456 95.5231 2.66456C95.5231 2.66456 101.488 2.58594 104.471 2.58435C110.904 2.58117 117.326 2.44299 123.743 2.24604C124.772 2.21348 125.807 2.14758 126.836 2.15631C136.499 2.2397 146.16 2.3342 155.822 2.4279C159.04 2.45808 162.259 2.48588 165.475 2.53035C169.62 2.58674 173.74 2.38424 177.87 2.32071C184.763 2.2135 191.663 2.22619 198.56 2.21031C201.306 2.20316 204.082 2.0618 206.758 2.52161C207.272 2.60976 207.902 2.60182 208.468 2.58196C211.439 2.47634 214.446 2.74478 217.396 2.39694C217.939 2.33262 218.539 2.36595 219.112 2.36119C223.586 2.31989 228.056 2.26907 232.527 2.24366C235.743 2.22539 238.96 2.23254 242.178 2.24366C245.512 2.25478 248.847 2.31356 252.18 2.29767C255.399 2.28258 258.616 2.2127 261.83 2.14202C265.398 2.06499 268.951 2.22222 272.505 2.22937C279.406 2.24049 286.293 2.36596 293.183 2.48905C294.789 2.51685 296.387 2.63121 297.993 2.65504C301.203 2.70189 304.418 2.71538 307.63 2.74C309.582 2.75429 311.538 2.73762 313.487 2.78129C316.353 2.84641 319.21 2.99096 322.075 3.03464C327.353 3.11803 332.637 3.20856 337.918 3.19267C343.894 3.17441 349.885 3.13866 355.838 2.92424C359.525 2.79162 363.181 2.89803 366.849 2.85991C370.947 2.81624 404.767 3.2427 409.833 3.32847C411.783 3.36262 413.738 3.39834 415.689 3.37531C419.934 3.32449 424.175 3.23952 428.417 3.16249C430.699 3.1204 433.002 3.16566 435.259 3.09895C441.9 2.9028 448.515 2.51129 455.189 2.5105C457.372 2.5105 459.558 2.52161 461.742 2.52479C465.407 2.53035 469.083 2.34531 472.735 2.66456C473.286 2.71379 473.879 2.67012 474.45 2.66456C477.434 2.63756 480.417 2.58594 483.399 2.58435C489.834 2.58117 496.254 2.44299 502.671 2.24604C503.702 2.21348 504.734 2.14758 505.764 2.15631C515.428 2.2397 525.089 2.3342 534.75 2.4279C537.97 2.45808 541.187 2.48588 544.403 2.53035C548.55 2.58674 552.67 2.38424 556.798 2.32071C563.69 2.2135 570.592 2.22619 577.488 2.21031C580.234 2.20316 583.01 2.0618 585.686 2.52161C586.2 2.60976 586.831 2.60182 587.396 2.58196C590.368 2.47634 593.374 2.74478 596.326 2.39694C596.867 2.33262 597.466 2.36595 598.042 2.36119C602.514 2.31989 606.983 2.26907 611.455 2.24366C614.671 2.22539 617.888 2.23254 621.107 2.24366C624.44 2.25478 627.776 2.31356 631.111 2.29767C634.327 2.28258 637.544 2.2127 640.759 2.14202C644.326 2.06499 647.879 2.22222 651.432 2.22937C658.335 2.24049 665.22 2.36596 672.111 2.48905C673.718 2.51685 675.315 2.63121 676.922 2.65504C680.131 2.70189 683.344 2.71538 686.558 2.74C688.51 2.75429 690.466 2.73762 692.415 2.78129C695.282 2.84641 698.138 2.99096 701.004 3.03464C706.283 3.11803 711.566 3.20856 716.846 3.19267C722.823 3.17441 728.812 3.13866 734.766 2.92424C738.452 2.79162 742.11 2.89803 745.778 2.85991C750.139 2.81306 750.135 3.27431 754.5 3.25763C755.969 3.25207 761.16 3.615 762.66 3.615C762.626 2.1251 762.66 3.615 762.66 2.47031" fill="#495057"/>
</svg>
